svg/u1f376.svg

<svg viewBox="0 0 128 128" xmlns="http://www.w3.org/2000/svg">
  <path d="M67.73,39.4c0,7.42-6.44,9.88-12.2,26.71c-4.12,12.03-7.79,37.49,3.13,49.62 c4.34,4.83,11.55,7.78,20.94,7.91c11.87,0.16,20.94-2.47,25.65-11.56c6.27-12.11,4.29-30.84,0.24-45.65 c-4.29-15.66-12.36-19.62-12.2-28.19c0.12-6.11,9.4-10.22,9.4-24.23c0-7.58-11.54-9.7-21.6-10.06C71.69,3.62,58.24,5.76,58,13.18 C57.51,29.01,67.73,31.81,67.73,39.4z" fill="#E0E0E0"/>
  <path d="M87.18,42.03c0.04,7.42,9.5,10.52,13.6,31.95c2.39,12.49,8.75,7.25,4.7-7.55 c-4.29-15.66-12.36-19.62-12.2-28.19c0.12-6.11,9.4-10.22,9.4-24.23c0-1.08-0.25-2.07-0.67-2.92c-0.01-0.03,0.04,3.3-2.78,9.09 C91.57,35.86,87.14,33.18,87.18,42.03z" fill="#C8C8C8"/>
  <path d="M99.19,13.11c0.15,4.87-11.14,6.5-19.41,6.26s-18.75-1.48-18.41-6.73 c0.31-4.72,10.91-6.19,19.03-6.03C88.67,6.77,99.04,8.31,99.19,13.11z" fill="#B0B0B0"/>
  <path d="M62.99,8.94c-1.14-0.69-3.37,0.38-3.68,3.32c-0.21,2,1.43,5.2,4.99,5.03 c2.83-0.13-2.76-1.95-2.7-4.86C61.64,10.48,64.33,9.75,62.99,8.94z" fill="#FFFFFF"/>
  <path d="M55.53,66.1c-4.12,12.03-7.79,37.49,3.13,49.62c4.34,4.83,11.55,7.78,20.94,7.91 c11.87,0.16,20.94-2.47,25.65-11.56c6.27-12.11,4.29-30.84,0.24-45.65c-5.52,6.01-13.05,9.56-25.68,9.56 C68.56,75.99,61.62,72.78,55.53,66.1z" fill="#A6CFD6"/>
  <path d="M51.59,86.97c-0.63,10.61,0.86,21.84,7.07,28.75c1.52,1.69,3.38,3.15,5.58,4.34 c3.15,1.69,12.34-9.72,9.9-25.9C73.46,89.62,51.87,85.3,51.59,86.97z" fill="#6CA4AE"/>
  <path d="M87.95,123.18c7.78-1.1,13.76-4.29,17.29-11.1c6.27-12.11,4.29-30.84,0.24-45.65 c-1.69,1.84-3.56,3.44-5.71,4.79c3.29,19.81,2.66,35.58-7.26,47.38C91.16,120.2,89.65,121.72,87.95,123.18z" fill="#6CA4AE"/>
  <path d="M70.6,50.17c-2.62-0.31-7.2,4.65-10.86,13.85c-3.66,9.2-4.03,19.97-1.3,20.75 c2.64,0.75,3.11-10.75,7.5-19.75C70.74,55.2,72.78,50.43,70.6,50.17z" fill="#FFFFFF"/>
  <path d="M50.82,115.46l-19.39,0.19v5.93c0,0,2.54,2.35,10.17,2.26s9.23-2.17,9.23-2.17V115.46z" fill="#6CA4AE"/>
  <path d="M21.26,88.16l-2.19,1.4c0,0-1.39,11.27,1.9,18.09c2.73,5.65,8.76,12.14,19.77,12.05 s17.59-6.69,19.86-12.43c2.54-6.4,1.51-16.03,1.45-17.09c-0.09-1.58-4.43-3.63-5.09-3.66C56.68,86.5,20.97,87.88,21.26,88.16z" fill="#A6CFD6"/>
  <path d="M23.01,95.95c-0.92-0.31-1.96,0.3-1.56,3.96c0.41,3.66,1.02,6,2.17,7.89 c1.02,1.67,2.64,3.39,3.49,3.08c0.56-0.2-1.52-3.15-2.07-7.52C24.63,99.97,24.95,96.6,23.01,95.95z" fill="#FEFEFE"/>
  <path d="M19.04,89.51c-0.42,4.1,7.72,8.02,20.72,8.11c15.34,0.11,22.58-3.7,22.3-7.32 c-0.37-4.73-9.88-7.84-22.4-7.68C27.46,82.78,19.45,85.54,19.04,89.51z" fill="#E0E0E0"/>
  <path d="M22.41,89.62c-0.22,2.63,7.89,6,17.67,5.82c11.82-0.21,18.67-2.27,18.69-5.33 c0.02-2.96-8.44-5.38-18.75-5.33C31.35,84.83,22.65,86.71,22.41,89.62z" fill="#B0B0B0"/>
</svg>

<svg viewBox="0 0 128 128" xmlns="http://www.w3.org/2000/svg">
  <defs/>
  <path d="M67.73,39.4 C67.73,46.82 61.29,49.28 55.53,66.11 C51.41,78.14 47.74,103.6 58.66,115.73 C63,120.56 70.21,123.51 79.6,123.64 C91.47,123.8 100.54,121.17 105.25,112.08 C111.52,99.97 109.54,81.24 105.49,66.43 C101.2,50.77 93.13,46.81 93.29,38.24 C93.41,32.13 102.69,28.02 102.69,14.01 C102.69,6.43 91.15,4.31 81.09,3.95 C71.69,3.62 58.24,5.76 58,13.18 C57.51,29.01 67.73,31.81 67.73,39.4 Z" fill="#E0E0E0"/>
  <path d="M87.18,42.03 C87.22,49.45 96.68,52.55 100.78,73.98 C103.17,86.47 109.53,81.23 105.48,66.43 C101.19,50.77 93.12,46.81 93.28,38.24 C93.4,32.13 102.68,28.02 102.68,14.01 C102.68,12.93 102.43,11.94 102.01,11.09 C102,11.06 102.05,14.39 99.23,20.18 C91.57,35.86 87.14,33.18 87.18,42.03 Z" fill="#C8C8C8"/>
  <path d="M99.19,13.11 C99.34,17.98 88.05,19.61 79.78,19.37 C71.51,19.13 61.03,17.89 61.37,12.64 C61.68,7.92 72.28,6.45 80.4,6.61 C88.67,6.77 99.04,8.31 99.19,13.11 Z" fill="#B0B0B0"/>
  <path d="M62.99,8.94 C61.85,8.25 59.62,9.32 59.31,12.26 C59.1,14.26 60.74,17.46 64.3,17.29 C67.13,17.16 61.54,15.34 61.6,12.43 C61.64,10.48 64.33,9.75 62.99,8.94 Z" fill="#FFFFFF"/>
  <path d="M55.53,66.1 C51.41,78.13 47.74,103.59 58.66,115.72 C63,120.55 70.21,123.5 79.6,123.63 C91.47,123.79 100.54,121.16 105.25,112.07 C111.52,99.96 109.54,81.23 105.49,66.42 C99.97,72.43 92.44,75.98 79.81,75.98 C68.56,75.99 61.62,72.78 55.53,66.1 Z" fill="#A6CFD6"/>
  <path d="M51.59,86.97 C50.96,97.58 52.45,108.81 58.66,115.72 C60.18,117.41 62.04,118.87 64.24,120.06 C67.39,121.75 76.58,110.34 74.14,94.16 C73.46,89.62 51.87,85.3 51.59,86.97 Z" fill="#6CA4AE"/>
  <path d="M87.95,123.18 C95.73,122.08 101.71,118.89 105.24,112.08 C111.51,99.97 109.53,81.24 105.48,66.43 C103.79,68.27 101.92,69.87 99.77,71.22 C103.06,91.03 102.43,106.8 92.51,118.6 C91.16,120.2 89.65,121.72 87.95,123.18 Z" fill="#6CA4AE"/>
  <path d="M70.6,50.17 C67.98,49.86 63.4,54.82 59.74,64.02 C56.08,73.22 55.71,83.99 58.44,84.77 C61.08,85.52 61.55,74.02 65.94,65.02 C70.74,55.2 72.78,50.43 70.6,50.17 Z" fill="#FFFFFF"/>
  <path d="M50.82,115.46 L31.43,115.65 L31.43,121.58 C31.43,121.58 33.97,123.93 41.6,123.84 C49.23,123.75 50.83,121.67 50.83,121.67 L50.83,115.46 Z" fill="#6CA4AE"/>
  <path d="M21.26,88.16 L19.07,89.56 C19.07,89.56 17.68,100.83 20.97,107.65 C23.7,113.3 29.73,119.79 40.74,119.7 C51.75,119.61 58.33,113.01 60.6,107.27 C63.14,100.87 62.11,91.24 62.05,90.18 C61.96,88.6 57.62,86.55 56.96,86.52 C56.68,86.5 20.97,87.88 21.26,88.16 Z" fill="#A6CFD6"/>
  <path d="M23.01,95.95 C22.09,95.64 21.05,96.25 21.45,99.91 C21.86,103.57 22.47,105.91 23.62,107.8 C24.64,109.47 26.26,111.19 27.11,110.88 C27.67,110.68 25.59,107.73 25.04,103.36 C24.63,99.97 24.95,96.6 23.01,95.95 Z" fill="#FEFEFE"/>
  <path d="M19.04,89.51 C18.62,93.61 26.76,97.53 39.76,97.62 C55.1,97.73 62.34,93.92 62.06,90.3 C61.69,85.57 52.18,82.46 39.66,82.62 C27.46,82.78 19.45,85.54 19.04,89.51 Z" fill="#E0E0E0"/>
  <path d="M22.41,89.62 C22.19,92.25 30.3,95.62 40.08,95.44 C51.9,95.23 58.75,93.17 58.77,90.11 C58.79,87.15 50.33,84.73 40.02,84.78 C31.35,84.83 22.65,86.71 22.41,89.62 Z" fill="#B0B0B0"/>
</svg>
